packages/tokens/icons/inProductSearch/size32Px.svg

<svg viewBox="0 0 32 32" fill="none" xmlns="http://www.w3.org/2000/svg" width="1em" height="1em"><rect x="4.5" y="23.5" width="6" height="6" rx="0.5" stroke="currentColor"/><line x1="13.5" y1="24.5" x2="27.5" y2="24.5" stroke="currentColor" stroke-linecap="round"/><line x1="13.5" y1="28.5" x2="27.5" y2="28.5" stroke="currentColor" stroke-linecap="round"/><line x1="13.5" y1="26.5" x2="27.5" y2="26.5" stroke="currentColor" stroke-linecap="round"/><rect x="2.5" y="15.5" width="27" height="6" rx="1.5" stroke="currentColor"/><circle cx="25.9558" cy="18.4558" r="0.955843" stroke="currentColor"/><path d="M19.5 13.5489C19.5 10.2356 16.8137 7.54954 13.5 7.54954C10.1863 7.54954 7.5 10.2356 7.5 13.5489M10.1507 13.5C10.1507 11.6775 11.6283 10.2 13.4511 10.2C15.2738 10.2 16.7514 11.6775 16.7514 13.5M23.9979 13.5C23.9979 12.6719 23.9979 11.3796 23.9979 11.3796C24.0249 11.0827 23.782 10.8398 23.4851 10.8398H22.4325C22.2166 9.89513 21.8388 9.03147 21.353 8.22178L22.0817 7.49306C22.2976 7.27715 22.2976 6.95327 22.0817 6.73736L19.7876 4.44325C19.5716 4.22733 19.2478 4.22733 19.0319 4.44325L18.3031 5.17196C17.4934 4.68615 16.6298 4.3083 15.6851 4.09238V3.03979C15.6851 2.74291 15.4422 2.5 15.1453 2.5L11.9066 2.5C11.6097 2.5 11.3668 2.74291 11.3668 3.03979V4.09238C10.4222 4.3083 9.55848 4.68615 8.7488 5.17196L7.99308 4.44325C7.77717 4.22733 7.45329 4.22733 7.23737 4.44325L4.94325 6.73736C4.72734 6.95327 4.72734 7.27715 4.94325 7.49306L5.67197 8.22178C5.18616 9.03147 4.80831 9.89513 4.59239 10.8398H3.53979C3.24291 10.8398 3 11.0827 3 11.3796L3 13.5" stroke="currentColor" stroke-linecap="round" stroke-linejoin="round"/></svg>

<svg xmlns="http://www.w3.org/2000/svg" fill="none" viewBox="0 0 32 32" width="1em" height="1em"><rect width="6" height="6" x="4.5" y="23.5" stroke="currentColor" rx=".5"/><path stroke="currentColor" stroke-linecap="round" d="M13.5 24.5h14m-14 4h14m-14-2h14"/><rect width="27" height="6" x="2.5" y="15.5" stroke="currentColor" rx="1.5"/><circle cx="25.956" cy="18.456" r=".956" stroke="currentColor"/><path stroke="currentColor" stroke-linecap="round" stroke-linejoin="round" d="M19.5 13.549a6 6 0 0 0-12 0m2.65-.049a3.3 3.3 0 0 1 6.601 0m7.247 0v-2.12a.503.503 0 0 0-.513-.54h-1.052a8.938 8.938 0 0 0-1.08-2.618l.729-.729a.522.522 0 0 0 0-.756l-2.294-2.294a.522.522 0 0 0-.756 0l-.729.729a8.938 8.938 0 0 0-2.618-1.08V3.04a.541.541 0 0 0-.54-.54h-3.238a.541.541 0 0 0-.54.54v1.052a8.939 8.939 0 0 0-2.618 1.08l-.756-.729a.522.522 0 0 0-.756 0L4.943 6.737a.522.522 0 0 0 0 .756l.729.729a8.938 8.938 0 0 0-1.08 2.618H3.54a.541.541 0 0 0-.54.54v2.12"/></svg>
